icons/solid/arrows-expand.svg

<svg width="24" height="24" viewBox="0 0 24 24" fill="none" xmlns="http://www.w3.org/2000/svg">
<path fill-rule="evenodd" clip-rule="evenodd" d="M8 3C8.40446 3 8.7691 3.24364 8.92388 3.61732C9.07866 3.99099 8.9931 4.42111 8.70711 4.70711L7.41421 6L9.70711 8.29289C10.0976 8.68342 10.0976 9.31658 9.70711 9.70711C9.31658 10.0976 8.68342 10.0976 8.29289 9.70711L6 7.41421L4.70711 8.70711C4.42111 8.9931 3.99099 9.07866 3.61732 8.92388C3.24364 8.7691 3 8.40446 3 8V4C3 3.44772 3.44772 3 4 3H8ZM14.2929 15.7071C13.9024 15.3166 13.9024 14.6834 14.2929 14.2929C14.6834 13.9024 15.3166 13.9024 15.7071 14.2929L18 16.5858L19.2929 15.2929C19.5789 15.0069 20.009 14.9213 20.3827 15.0761C20.7564 15.2309 21 15.5955 21 16V20C21 20.5523 20.5523 21 20 21H16C15.5955 21 15.2309 20.7564 15.0761 20.3827C14.9213 20.009 15.0069 19.5789 15.2929 19.2929L16.5858 18L14.2929 15.7071ZM8 21C8.40446 21 8.7691 20.7564 8.92388 20.3827C9.07866 20.009 8.9931 19.5789 8.70711 19.2929L7.41421 18L9.70711 15.7071C10.0976 15.3166 10.0976 14.6834 9.70711 14.2929C9.31658 13.9024 8.68342 13.9024 8.29289 14.2929L6 16.5858L4.70711 15.2929C4.42111 15.0069 3.99099 14.9213 3.61732 15.0761C3.24364 15.2309 3 15.5955 3 16V20C3 20.5523 3.44772 21 4 21H8ZM14.2929 8.29289C13.9024 8.68342 13.9024 9.31658 14.2929 9.70711C14.6834 10.0976 15.3166 10.0976 15.7071 9.70711L18 7.41421L19.2929 8.70711C19.5789 8.9931 20.009 9.07866 20.3827 8.92388C20.7564 8.7691 21 8.40446 21 8V4C21 3.44772 20.5523 3 20 3H16C15.5955 3 15.2309 3.24364 15.0761 3.61732C14.9213 3.99099 15.0069 4.42111 15.2929 4.70711L16.5858 6L14.2929 8.29289Z" fill="currentColor"/>
</svg>

<svg width="24" height="24" fill="none" xmlns="http://www.w3.org/2000/svg"><path fill-rule="evenodd" clip-rule="evenodd" d="M8 3a1 1 0 01.707 1.707L7.414 6l2.293 2.293a1 1 0 01-1.414 1.414L6 7.414 4.707 8.707A1 1 0 013 8V4a1 1 0 011-1h4zm6.293 12.707a1 1 0 011.414-1.414L18 16.586l1.293-1.293A1 1 0 0121 16v4a1 1 0 01-1 1h-4a1 1 0 01-.707-1.707L16.586 18l-2.293-2.293zM8 21a1 1 0 00.707-1.707L7.414 18l2.293-2.293a1 1 0 00-1.414-1.414L6 16.586l-1.293-1.293A1 1 0 003 16v4a1 1 0 001 1h4zm6.293-12.707a1 1 0 001.414 1.414L18 7.414l1.293 1.293A1 1 0 0021 8V4a1 1 0 00-1-1h-4a1 1 0 00-.707 1.707L16.586 6l-2.293 2.293z" fill="currentColor"/></svg>
